Sweet-Rainbow/icons/todo.svg

<?xml version="1.0" encoding="UTF-8" standalone="no"?>
<!-- Generator: Gravit.io -->

<svg
   xmlns:dc="http://purl.org/dc/elements/1.1/"
   xmlns:cc="http://creativecommons.org/ns#"
   xmlns:rdf="http://www.w3.org/1999/02/22-rdf-syntax-ns#"
   xmlns:svg="http://www.w3.org/2000/svg"
   xmlns="http://www.w3.org/2000/svg"
   xmlns:sodipodi="http://sodipodi.sourceforge.net/DTD/sodipodi-0.dtd"
   xmlns:inkscape="http://www.inkscape.org/namespaces/inkscape"
   style="isolation:isolate"
   viewBox="0 0 48 48"
   width="48"
   height="48"
   version="1.1"
   id="svg9"
   sodipodi:docname="todo.svg"
   inkscape:version="0.92.4 (5da689c313, 2019-01-14)">
  <metadata
     id="metadata15">
    <rdf:RDF>
      <cc:Work
         rdf:about="">
        <dc:format>image/svg+xml</dc:format>
        <dc:type
           rdf:resource="http://purl.org/dc/dcmitype/StillImage" />
        <dc:title></dc:title>
      </cc:Work>
    </rdf:RDF>
  </metadata>
  <defs
     id="defs13" />
  <sodipodi:namedview
     pagecolor="#ffffff"
     bordercolor="#666666"
     borderopacity="1"
     objecttolerance="10"
     gridtolerance="10"
     guidetolerance="10"
     inkscape:pageopacity="0"
     inkscape:pageshadow="2"
     inkscape:window-width="640"
     inkscape:window-height="480"
     id="namedview11"
     showgrid="false"
     inkscape:zoom="39.153656"
     inkscape:cx="18.994082"
     inkscape:cy="24"
     inkscape:current-layer="svg9" />
  <linearGradient
     id="_lgradient_2"
     x1="0"
     y1="0.5"
     x2="0.90748805"
     y2="0.92007786"
     gradientTransform="matrix(44,0,0,44,2,2)"
     gradientUnits="userSpaceOnUse">
    <stop
       offset="0%"
       stop-opacity="1"
       style="stop-color:rgb(69,104,220)"
       id="stop2" />
    <stop
       offset="98.69565217391305%"
       stop-opacity="1"
       style="stop-color:rgb(176,106,179)"
       id="stop4" />
  </linearGradient>
  <g
     id="g826"
     transform="matrix(1.0909091,0,0,1.0909091,-2.1818184,-2.1818184)">
    <path
       id="path7"
       d="m 42,24.14 v 0 c 0,-1.104 0.896,-2 2,-2 v 0 c 1.104,0 2,0.896 2,2 v 0 V 39 c 0,3.863 -3.137,7 -7,7 H 9 C 5.137,46 2,42.863 2,39 V 9 C 2,5.137 5.137,2 9,2 h 30 c 3.863,0 7,3.137 7,7 v 1.54 c 0,1.104 -0.68,2.583 -1.519,3.301 L 25.349,30.239 c -0.839,0.718 -2.123,0.639 -2.868,-0.176 L 14.52,21.35 v 0 c -0.745,-0.817 -0.687,-2.085 0.13,-2.83 v 0 c 0.817,-0.745 2.085,-0.687 2.83,0.13 v 0 l 6.016,6.591 c 0.372,0.408 1.014,0.447 1.433,0.088 L 41.241,11.351 C 41.66,10.992 42,10.252 42,9.7 V 9 C 42,7.344 40.656,6 39,6 H 11 C 8.24,6 6,8.24 6,11 v 26 c 0,2.76 2.24,5 5,5 h 26 c 2.76,0 5,-2.24 5,-5 z"
       inkscape:connector-curvature="0"
       style="fill:url(#_lgradient_2)" />
  </g>
</svg>

<?xml version="1.0" standalone="no"?><!-- Generator: Gravit.io --><svg xmlns="http://www.w3.org/2000/svg" xmlns:xlink="http://www.w3.org/1999/xlink" style="isolation:isolate" viewBox="0 0 48 48" width="48px" height="48px"><linearGradient id="_lgradient_2" x1="0" y1="0.5" x2="0.9074880558539661" y2="0.9200778838291643" gradientTransform="matrix(44,0,0,44,2,2)" gradientUnits="userSpaceOnUse"><stop offset="0%" stop-opacity="1" style="stop-color:rgb(69,104,220)"/><stop offset="98.69565217391305%" stop-opacity="1" style="stop-color:rgb(176,106,179)"/></linearGradient><path d=" M 42 24.14 L 42 24.14 C 42 23.036 42.896 22.14 44 22.14 L 44 22.14 C 45.104 22.14 46 23.036 46 24.14 L 46 24.14 L 46 39 C 46 42.863 42.863 46 39 46 L 9 46 C 5.137 46 2 42.863 2 39 L 2 9 C 2 5.137 5.137 2 9 2 L 39 2 C 42.863 2 46 5.137 46 9 L 46 10.54 C 46 11.644 45.32 13.123 44.481 13.841 L 25.349 30.239 C 24.51 30.957 23.226 30.878 22.481 30.063 L 14.52 21.35 L 14.52 21.35 C 13.775 20.533 13.833 19.265 14.65 18.52 L 14.65 18.52 C 15.467 17.775 16.735 17.833 17.48 18.65 L 17.48 18.65 L 23.496 25.241 C 23.868 25.649 24.51 25.688 24.929 25.329 L 41.241 11.351 C 41.66 10.992 42 10.252 42 9.7 L 42 9 C 42 7.344 40.656 6 39 6 L 11 6 C 8.24 6 6 8.24 6 11 L 6 37 C 6 39.76 8.24 42 11 42 L 37 42 C 39.76 42 42 39.76 42 37 L 42 24.14 Z " fill="url(#_lgradient_2)"/></svg>
